; generated by Slic3r 1.2.9 on 2016-08-05 at 13:20:03

; external perimeters extrusion width = 0.50mm
; perimeters extrusion width = 0.72mm
; infill extrusion width = 0.72mm
; solid infill extrusion width = 0.72mm
; top infill extrusion width = 0.72mm

M107
M104 S200 ; set temperature
G28 ; home all axes
G1 Z5 F5000 ; lift nozzle

M109 S200 ; wait for temperature to be reached
G21 ; set units to millimeters
G90 ; use absolute coordinates
M82 ; use absolute distances for extrusion
G92 E0
G1 Z0.350 F7800.000
G1 E-2.00000 F2400.00000
G92 E0
G1 X70.168 Y84.474 F7800.000
G1 E2.00000 F2400.00000
G1 X72.320 Y83.681 E2.07096 F1800.000
G1 X73.500 Y83.575 E2.10761
G1 X126.100 Y83.575 E3.73513
G1 X128.359 Y83.972 E3.80609
G1 X130.347 Y85.115 E3.87705 F1800.000
G1 X131.826 Y86.868 E3.94801
G1 X132.619 Y89.020 E4.01898
G1 X132.725 Y90.200 E4.05563
G1 X132.725 Y109.800 E4.66208
G1 X132.328 Y112.059 E4.73304
G1 X131.185 Y114.047 E4.80400
G1 X129.432 Y115.526 E4.87496
G1 X127.280 Y116.319 E4.94593
G1 X126.100 Y116.425 E4.98258
G1 X73.500 Y116.425 E6.61009
G1 X71.241 Y116.028 E6.68105
G1 X69.253 Y114.885 E6.75201
G1 X67.774 Y113.132 E6.82298
G1 X66.981 Y110.980 E6.89394
G1 X66.875 Y109.800 E6.93059
G1 X66.875 Y90.200 E7.53704
G1 X67.272 Y87.941 E7.60800
G1 X68.415 Y85.953 E7.67896
G1 X70.111 Y84.522 E7.74761
G1 E5.74761 F2400.00000
G92 E0
G1 X106.600 Y93.300 F7800.000
G1 E2.00000 F2400.00000
G1 X106.600 Y91.800 E2.04641 F1800.000
G1 X124.500 Y91.800 E2.60028
G1 X124.500 Y108.200 E3.10773
G1 X75.100 Y108.200 E4.63624
G1 X75.100 Y91.800 E5.14369
G1 X93.400 Y91.800 E5.70993
G1 X93.400 Y93.300 E5.75634
G1 X106.525 Y93.300 E6.16244
G1 X105.975 Y92.675 F7800.000
G1 X105.975 Y91.175 E6.20885 F1800.000
G1 X125.125 Y91.175 E6.80138
G1 X125.125 Y108.825 E7.34750
G1 X74.475 Y108.825 E8.91469
G1 X74.475 Y91.175 E9.46081
G1 X94.025 Y91.175 E10.06572
G1 X94.025 Y92.675 E10.11213
G1 X105.900 Y92.675 E10.47955
G1 X105.350 Y92.050 F7800.000
G1 X105.350 Y90.550 E10.52596 F1800.000
G1 X125.750 Y90.550 E11.15716
G1 X125.750 Y109.450 E11.74196
G1 X73.850 Y109.450 E13.34781
G1 X73.850 Y90.550 E13.93260
G1 X94.650 Y90.550 E14.57618
G1 X94.650 Y92.050 E14.62259
G1 X105.275 Y92.050 E14.95134
G1 X105.850 Y92.050 F7800.000
G1 X106.978 Y93.028 F7800.000
G1 X121.772 Y107.822 E15.59916 F1800.000
G1 X122.656 Y107.822 E15.62655
G1 X107.013 Y92.178 E16.31158
G1 X107.897 Y92.178 E16.33896
G1 X123.541 Y107.822 E17.02399
G1 X124.122 Y107.518 E17.04429
G1 X108.782 Y92.178 E17.71603
G1 X109.666 Y92.178 E17.74341
G1 X124.122 Y106.634 E18.37643
G1 X124.122 Y105.749 E18.40381
G1 X110.551 Y92.178 E18.99810
G1 X111.435 Y92.178 E19.02548
G1 X124.122 Y104.865 E19.58104
G1 X124.122 Y103.981 E19.60842
G1 X112.319 Y92.178 E20.12525
G1 X113.204 Y92.178 E20.15264
G1 X124.122 Y103.096 E20.63074
G1 X124.122 Y102.212 E20.65812
G1 X114.088 Y92.178 E21.09749
G1 X114.973 Y92.178 E21.12488
G1 X124.122 Y101.327 E21.52552
G1 X124.122 Y100.443 E21.55291
G1 X115.857 Y92.178 E21.91482
G1 X116.741 Y92.178 E21.94221
G1 X124.122 Y99.559 E22.26539
G1 X124.122 Y98.674 E22.29278
G1 X117.626 Y92.178 E22.57724
G1 X118.510 Y92.178 E22.60462
G1 X124.122 Y97.790 E22.85035
G1 X124.122 Y96.905 E22.87774
G1 X119.395 Y92.178 E23.08474
G1 X120.279 Y92.178 E23.11212
G1 X124.122 Y96.021 E23.28040
G1 X124.122 Y95.137 E23.30778
G1 X121.163 Y92.178 E23.43733
G1 X122.048 Y92.178 E23.46471
G1 X124.122 Y94.252 E23.55553
G1 X124.122 Y93.368 E23.58292
G1 X122.932 Y92.178 E23.63501
G1 X123.817 Y92.178 E23.66239
G1 X124.122 Y92.483 E23.67575
G1 X106.744 Y93.678 F7800.000
G1 X120.888 Y107.822 E24.29510 F1800.000
G1 X120.003 Y107.822 E24.32248
G1 X105.860 Y93.678 E24.94183
G1 X104.975 Y93.678 E24.96921
G1 X119.119 Y107.822 E25.58855
G1 X118.234 Y107.822 E25.61594
G1 X104.091 Y93.678 E26.23528
G1 X103.207 Y93.678 E26.26267
G1 X117.350 Y107.822 E26.88201
G1 X116.466 Y107.822 E26.90940
G1 X102.322 Y93.678 E27.52874
G1 X101.438 Y93.678 E27.55613
G1 X115.581 Y107.822 E28.17547
G1 X114.697 Y107.822 E28.20286
G1 X100.553 Y93.678 E28.82220
G1 X99.669 Y93.678 E28.84959
G1 X113.812 Y107.822 E29.46893
G1 X112.928 Y107.822 E29.49631
G1 X98.785 Y93.678 E30.11566
G1 X97.900 Y93.678 E30.14304
G1 X112.044 Y107.822 E30.76239
G1 X111.159 Y107.822 E30.78977
G1 X97.016 Y93.678 E31.40912
G1 X96.132 Y93.678 E31.43650
G1 X110.275 Y107.822 E32.05585
G1 X109.390 Y107.822 E32.08323
G1 X95.247 Y93.678 E32.70257
G1 X94.363 Y93.678 E32.72996
G1 X108.506 Y107.822 E33.34930
G1 X107.622 Y107.822 E33.37669
G1 X93.478 Y93.678 E33.99603
G1 X93.022 Y93.222 F7800.000
G1 X91.978 Y92.178 E34.04172 F1800.000
G1 X91.094 Y92.178 E34.06910
G1 X106.737 Y107.822 E34.75413
G1 X105.853 Y107.822 E34.78152
G1 X90.210 Y92.178 E35.46655
G1 X89.325 Y92.178 E35.49394
G1 X104.968 Y107.822 E36.17897
G1 X104.084 Y107.822 E36.20635
G1 X88.441 Y92.178 E36.89138
G1 X87.556 Y92.178 E36.91877
G1 X103.200 Y107.822 E37.60380
G1 X102.315 Y107.822 E37.63118
G1 X86.672 Y92.178 E38.31621
G1 X85.788 Y92.178 E38.34360
G1 X101.431 Y107.822 E39.02863
G1 X100.546 Y107.822 E39.05601
G1 X84.903 Y92.178 E39.74104
G1 X84.019 Y92.178 E39.76843
G1 X99.662 Y107.822 E40.45346
G1 X98.778 Y107.822 E40.48084
G1 X83.134 Y92.178 E41.16587
G1 X82.250 Y92.178 E41.19326
G1 X97.893 Y107.822 E41.87829
G1 X97.009 Y107.822 E41.90567
G1 X81.366 Y92.178 E42.59070
G1 X80.481 Y92.178 E42.61809
G1 X96.124 Y107.822 E43.30312
G1 X95.240 Y107.822 E43.33050
G1 X79.597 Y92.178 E44.01553
G1 X78.712 Y92.178 E44.04292
G1 X94.356 Y107.822 E44.72795
G1 X93.471 Y107.822 E44.75533
G1 X77.828 Y92.178 E45.44036
G1 X76.944 Y92.178 E45.46775
G1 X92.587 Y107.822 E46.15278
G1 X91.703 Y107.822 E46.18016
G1 X76.059 Y92.178 E46.86519
G1 X75.478 Y92.482 E46.88548
G1 X90.818 Y107.822 E47.55722
G1 X89.934 Y107.822 E47.58461
G1 X75.478 Y93.366 E48.21762
G1 X75.478 Y94.251 E48.24501
G1 X89.049 Y107.822 E48.83929
G1 X88.165 Y107.822 E48.86667
G1 X75.478 Y95.135 E49.42223
G1 X75.478 Y96.019 E49.44961
G1 X87.281 Y107.822 E49.96644
G1 X86.396 Y107.822 E49.99382
G1 X75.478 Y96.904 E50.47192
G1 X75.478 Y97.788 E50.49931
G1 X85.512 Y107.822 E50.93868
G1 X84.627 Y107.822 E50.96606
G1 X75.478 Y98.673 E51.36670
G1 X75.478 Y99.557 E51.39409
G1 X83.743 Y107.822 E51.75600
G1 X82.859 Y107.822 E51.78339
G1 X75.478 Y100.441 E52.10657
G1 X75.478 Y101.326 E52.13396
G1 X81.974 Y107.822 E52.41841
G1 X81.090 Y107.822 E52.44580
G1 X75.478 Y102.210 E52.69153
G1 X75.478 Y103.095 E52.71891
G1 X80.205 Y107.822 E52.92591
G1 X79.321 Y107.822 E52.95330
G1 X75.478 Y103.979 E53.12157
G1 X75.478 Y104.863 E53.14896
G1 X78.437 Y107.822 E53.27850
G1 X77.552 Y107.822 E53.30589
G1 X75.478 Y105.748 E53.39670
G1 X75.478 Y106.632 E53.42409
G1 X76.668 Y107.822 E53.47617
G1 X75.783 Y107.822 E53.50356
G1 X75.478 Y107.517 E53.51692
G1 Z0.650 F7800.000
G1 X106.450 Y93.150 F7800.000
G1 X106.450 Y91.650 E53.55859 F3600.000
G1 X124.650 Y91.650 E54.06417
G1 X124.650 Y108.350 E54.52808
G1 X74.950 Y108.350 E55.90866
G1 X74.950 Y91.650 E56.37257
G1 X93.550 Y91.650 E56.88926
G1 X93.550 Y93.150 E56.93093
G1 X106.375 Y93.150 E57.28716
G1 X105.795 Y92.495 F7800.000
G1 X105.795 Y90.995 E57.32882 F3600.000
G1 X125.305 Y90.995 E57.87076
G1 X125.305 Y109.005 E58.37104
G1 X74.295 Y109.005 E59.78798
G1 X74.295 Y90.995 E60.28825
G1 X94.205 Y90.995 E60.84131
G1 X94.205 Y92.495 E60.88297
G1 X105.720 Y92.495 E61.20284
G1 X105.250 Y91.950 F7800.000
G1 X105.250 Y90.450 E61.23057 F1800.000
G1 X125.850 Y90.450 E61.61143
G1 X125.850 Y109.550 E61.96455
G1 X73.750 Y109.550 E62.92779
G1 X73.750 Y90.450 E63.28092
G1 X94.750 Y90.450 E63.66917
G1 X94.750 Y91.950 E63.69690
G1 X105.175 Y91.950 E63.88964
G1 X105.750 Y91.950 F7800.000
G1 X105.788 Y93.547 F7800.000
G1 X91.382 Y107.953 E64.45831 F1200.000
G1 X90.452 Y107.953 E64.48427
G1 X104.858 Y93.547 E65.05294
G1 X103.928 Y93.547 E65.07890
G1 X89.522 Y107.953 E65.64757
G1 X88.592 Y107.953 E65.67353
G1 X102.998 Y93.547 E66.24220
G1 X102.068 Y93.547 E66.26816
G1 X87.662 Y107.953 E66.83683
G1 X86.731 Y107.953 E66.86279
G1 X101.137 Y93.547 E67.43146
G1 X100.207 Y93.547 E67.45742
G1 X85.801 Y107.953 E68.02609
G1 X84.871 Y107.953 E68.05205
G1 X99.277 Y93.547 E68.62072
G1 X98.347 Y93.547 E68.64668
G1 X83.941 Y107.953 E69.21535
G1 X83.011 Y107.953 E69.24131
G1 X97.417 Y93.547 E69.80998
G1 X96.487 Y93.547 E69.83594
G1 X82.081 Y107.953 E70.40461
G1 X81.151 Y107.953 E70.43057
G1 X95.557 Y93.547 E70.99924
G1 X94.627 Y93.547 E71.02520
G1 X80.221 Y107.953 E71.59387
G1 X79.291 Y107.953 E71.61983
G1 X93.697 Y93.547 E72.18849
G1 X93.153 Y93.161 F7800.000
G1 X78.361 Y107.953 E72.77242 F1200.000
G1 X77.431 Y107.953 E72.79838
G1 X93.153 Y92.231 E73.41901
G1 X92.406 Y92.047 E73.44047
G1 X76.500 Y107.953 E74.06835
G1 X75.570 Y107.953 E74.09431
G1 X91.476 Y92.047 E74.72219
G1 X90.546 Y92.047 E74.74816
G1 X75.347 Y107.246 E75.34814
G1 X75.347 Y106.316 E75.37410
G1 X89.616 Y92.047 E75.93736
G1 X88.686 Y92.047 E75.96332
G1 X75.347 Y105.386 E76.48987
G1 X75.347 Y104.456 E76.51583
G1 X87.756 Y92.047 E77.00567
G1 X86.826 Y92.047 E77.03163
G1 X75.347 Y103.526 E77.48475
G1 X75.347 Y102.596 E77.51071
G1 X85.896 Y92.047 E77.92711
G1 X84.966 Y92.047 E77.95307
G1 X75.347 Y101.666 E78.33276
G1 X75.347 Y100.736 E78.35872
G1 X84.036 Y92.047 E78.70170
G1 X83.105 Y92.047 E78.72766
G1 X75.347 Y99.805 E79.03392
G1 X75.347 Y98.875 E79.05988
G1 X82.175 Y92.047 E79.32942
G1 X81.245 Y92.047 E79.35539
G1 X75.347 Y97.945 E79.58821
G1 X75.347 Y97.015 E79.61418
G1 X80.315 Y92.047 E79.81029
G1 X79.385 Y92.047 E79.83625
G1 X75.347 Y96.085 E79.99565
G1 X75.347 Y95.155 E80.02161
G1 X78.455 Y92.047 E80.14429
G1 X77.525 Y92.047 E80.17026
G1 X75.347 Y94.225 E80.25622
G1 X75.347 Y93.295 E80.28219
G1 X76.595 Y92.047 E80.33144
G1 X75.665 Y92.047 E80.35740
G1 X75.347 Y92.365 E80.36994
G1 X106.847 Y92.488 F7800.000
G1 X107.288 Y92.047 E80.38734 F1200.000
G1 X108.218 Y92.047 E80.41331
G1 X92.312 Y107.953 E81.04118
G1 X93.242 Y107.953 E81.06715
G1 X109.148 Y92.047 E81.69503
G1 X110.078 Y92.047 E81.72099
G1 X94.172 Y107.953 E82.34887
G1 X95.102 Y107.953 E82.37483
G1 X111.008 Y92.047 E83.00271
G1 X111.938 Y92.047 E83.02867
G1 X96.032 Y107.953 E83.65655
G1 X96.963 Y107.953 E83.68251
G1 X112.868 Y92.047 E84.31039
G1 X113.799 Y92.047 E84.33635
G1 X97.893 Y107.953 E84.96423
G1 X98.823 Y107.953 E84.99019
G1 X114.729 Y92.047 E85.61807
G1 X115.659 Y92.047 E85.64403
G1 X99.753 Y107.953 E86.27191
G1 X100.683 Y107.953 E86.29788
G1 X116.589 Y92.047 E86.92575
G1 X117.519 Y92.047 E86.95172
G1 X101.613 Y107.953 E87.57960
G1 X102.543 Y107.953 E87.60556
G1 X118.449 Y92.047 E88.23344
G1 X119.379 Y92.047 E88.25940
G1 X103.473 Y107.953 E88.88728
G1 X104.403 Y107.953 E88.91324
G1 X120.309 Y92.047 E89.54112
G1 X121.239 Y92.047 E89.56708
G1 X105.333 Y107.953 E90.19496
G1 X106.263 Y107.953 E90.22092
G1 X122.169 Y92.047 E90.84880
G1 X123.100 Y92.047 E90.87476
G1 X107.194 Y107.953 E91.50264
G1 X108.124 Y107.953 E91.52860
G1 X124.030 Y92.047 E92.15648
G1 X124.253 Y92.754 E92.17717
G1 X109.054 Y107.953 E92.77715
G1 X109.984 Y107.953 E92.80311
G1 X124.253 Y93.684 E93.36638
G1 X124.253 Y94.614 E93.39234
G1 X110.914 Y107.953 E93.91889
G1 X111.844 Y107.953 E93.94486
G1 X124.253 Y95.544 E94.43469
G1 X124.253 Y96.474 E94.46065
G1 X112.774 Y107.953 E94.91377
G1 X113.704 Y107.953 E94.93973
G1 X124.253 Y97.404 E95.35614
G1 X124.253 Y98.334 E95.38210
G1 X114.634 Y107.953 E95.76179
G1 X115.564 Y107.953 E95.78775
G1 X124.253 Y99.264 E96.13073
G1 X124.253 Y100.195 E96.15669
G1 X116.495 Y107.953 E96.46295
G1 X117.425 Y107.953 E96.48891
G1 X124.253 Y101.125 E96.75846
G1 X124.253 Y102.055 E96.78442
G1 X118.355 Y107.953 E97.01725
G1 X119.285 Y107.953 E97.04321
G1 X124.253 Y102.985 E97.23933
G1 X124.253 Y103.915 E97.26529
G1 X120.215 Y107.953 E97.42469
G1 X121.145 Y107.953 E97.45065
G1 X124.253 Y104.845 E97.57334
G1 X124.253 Y105.775 E97.59930
G1 X122.075 Y107.953 E97.68527
G1 X123.005 Y107.953 E97.71123
G1 X124.253 Y106.705 E97.76049
G1 X124.253 Y107.635 E97.78645
G1 X123.935 Y107.953 E97.79899
G1 Z0.950 F7800.000
G1 X106.450 Y93.150 F7800.000
G1 X106.450 Y91.650 E97.84065 F3600.000
G1 X124.650 Y91.650 E98.34623
G1 X124.650 Y108.350 E98.81015
G1 X74.950 Y108.350 E100.19073
G1 X74.950 Y91.650 E100.65464
G1 X93.550 Y91.650 E101.17133
G1 X93.550 Y93.150 E101.21300
G1 X106.375 Y93.150 E101.56923
G1 X105.795 Y92.495 F7800.000
G1 X105.795 Y90.995 E101.61089 F3600.000
G1 X125.305 Y90.995 E102.15283
G1 X125.305 Y109.005 E102.65311
G1 X74.295 Y109.005 E104.07005
G1 X74.295 Y90.995 E104.57032
G1 X94.205 Y90.995 E105.12338
G1 X94.205 Y92.495 E105.16504
G1 X105.720 Y92.495 E105.48491
G1 X105.250 Y91.950 F7800.000
G1 X105.250 Y90.450 E105.51264 F1800.000
G1 X125.850 Y90.450 E105.89350
G1 X125.850 Y109.550 E106.24662
G1 X73.750 Y109.550 E107.20986
G1 X73.750 Y90.450 E107.56299
G1 X94.750 Y90.450 E107.95124
G1 X94.750 Y91.950 E107.97897
G1 X105.175 Y91.950 E108.17171
G1 X105.750 Y91.950 F7800.000
G1 X124.253 Y92.365 F7800.000
G1 X123.935 Y92.047 E108.18425 F1200.000
G1 X123.005 Y92.047 E108.21022
G1 X124.253 Y93.295 E108.25947
G1 X124.253 Y94.225 E108.28543
G1 X122.075 Y92.047 E108.37140
G1 X121.145 Y92.047 E108.39736
G1 X124.253 Y95.155 E108.52005
G1 X124.253 Y96.085 E108.54601
G1 X120.215 Y92.047 E108.70541
G1 X119.285 Y92.047 E108.73137
G1 X124.253 Y97.015 E108.92749
G1 X124.253 Y97.945 E108.95345
G1 X118.355 Y92.047 E109.18628
G1 X117.425 Y92.047 E109.21224
G1 X124.253 Y98.875 E109.48179
G1 X124.253 Y99.805 E109.50775
G1 X116.495 Y92.047 E109.81401
G1 X115.564 Y92.047 E109.83997
G1 X124.253 Y100.736 E110.18295
G1 X124.253 Y101.666 E110.20891
G1 X114.634 Y92.047 E110.58860
G1 X113.704 Y92.047 E110.61456
G1 X124.253 Y102.596 E111.03097
G1 X124.253 Y103.526 E111.05693
G1 X112.774 Y92.047 E111.51005
G1 X111.844 Y92.047 E111.53601
G1 X124.253 Y104.456 E112.02585
G1 X124.253 Y105.386 E112.05181
G1 X110.914 Y92.047 E112.57836
G1 X109.984 Y92.047 E112.60432
G1 X124.253 Y106.316 E113.16759
G1 X124.253 Y107.246 E113.19355
G1 X109.054 Y92.047 E113.79353
G1 X108.124 Y92.047 E113.81949
G1 X124.030 Y107.953 E114.44737
G1 X123.100 Y107.953 E114.47333
G1 X107.194 Y92.047 E115.10121
G1 X106.847 Y92.631 E115.12016
G1 X122.169 Y107.953 E115.72500
G1 X121.239 Y107.953 E115.75096
G1 X106.833 Y93.547 E116.31963
G1 X105.903 Y93.547 E116.34559
G1 X120.309 Y107.953 E116.91426
G1 X119.379 Y107.953 E116.94022
G1 X104.973 Y93.547 E117.50889
G1 X104.043 Y93.547 E117.53485
G1 X118.449 Y107.953 E118.10352
G1 X117.519 Y107.953 E118.12948
G1 X103.113 Y93.547 E118.69815
G1 X102.183 Y93.547 E118.72411
G1 X116.589 Y107.953 E119.29278
G1 X115.659 Y107.953 E119.31874
G1 X101.253 Y93.547 E119.88741
G1 X100.323 Y93.547 E119.91337
G1 X114.729 Y107.953 E120.48203
G1 X113.799 Y107.953 E120.50800
G1 X99.393 Y93.547 E121.07666
G1 X98.463 Y93.547 E121.10263
G1 X112.868 Y107.953 E121.67129
G1 X111.938 Y107.953 E121.69725
G1 X97.532 Y93.547 E122.26592
G1 X96.602 Y93.547 E122.29188
G1 X111.008 Y107.953 E122.86055
G1 X110.078 Y107.953 E122.88651
G1 X95.672 Y93.547 E123.45518
G1 X94.742 Y93.547 E123.48114
G1 X109.148 Y107.953 E124.04981
G1 X108.218 Y107.953 E124.07577
G1 X93.812 Y93.547 E124.64444
G1 X93.153 Y93.818 E124.66433
G1 X91.382 Y92.047 E124.73424
G1 X92.312 Y92.047 E124.76020
G1 X93.153 Y92.888 E124.79340
G1 X92.882 Y93.547 E124.81329
G1 X107.288 Y107.953 E125.38196
G1 X106.358 Y107.953 E125.40792
G1 X90.452 Y92.047 E126.03580
G1 X89.522 Y92.047 E126.06176
G1 X105.428 Y107.953 E126.68964
G1 X104.498 Y107.953 E126.71560
G1 X88.592 Y92.047 E127.34348
G1 X87.662 Y92.047 E127.36944
G1 X103.568 Y107.953 E127.99732
G1 X102.637 Y107.953 E128.02328
G1 X86.731 Y92.047 E128.65116
G1 X85.801 Y92.047 E128.67713
G1 X101.707 Y107.953 E129.30500
G1 X100.777 Y107.953 E129.33097
G1 X84.871 Y92.047 E129.95885
G1 X83.941 Y92.047 E129.98481
G1 X99.847 Y107.953 E130.61269
G1 X98.917 Y107.953 E130.63865
G1 X83.011 Y92.047 E131.26653
G1 X82.081 Y92.047 E131.29249
G1 X97.987 Y107.953 E131.92037
G1 X97.057 Y107.953 E131.94633
G1 X81.151 Y92.047 E132.57421
G1 X80.221 Y92.047 E132.60017
G1 X96.127 Y107.953 E133.22805
G1 X95.197 Y107.953 E133.25401
G1 X79.291 Y92.047 E133.88189
G1 X78.361 Y92.047 E133.90785
